poi/svg/2107.svg

<?xml version="1.0" encoding="UTF-8" standalone="no"?>
<svg
   xmlns:dc="http://purl.org/dc/elements/1.1/"
   xmlns:cc="http://creativecommons.org/ns#"
   xmlns:rdf="http://www.w3.org/1999/02/22-rdf-syntax-ns#"
   xmlns:svg="http://www.w3.org/2000/svg"
   xmlns="http://www.w3.org/2000/svg"
   xmlns:sodipodi="http://sodipodi.sourceforge.net/DTD/sodipodi-0.dtd"
   xmlns:inkscape="http://www.inkscape.org/namespaces/inkscape"
   inkscape:version="1.0 (4035a4fb49, 2020-05-01)"
   sodipodi:docname="2107.svg"
   id="svg20"
   version="1.2"
   viewBox="0 0 42.519639 42.519639"
   height="14.999999mm"
   width="14.999999mm">
  <metadata
     id="metadata24">
    <rdf:RDF>
      <cc:Work
         rdf:about="">
        <dc:format>image/svg+xml</dc:format>
        <dc:type
           rdf:resource="http://purl.org/dc/dcmitype/StillImage" />
        <dc:title>Qt SVG Document</dc:title>
      </cc:Work>
    </rdf:RDF>
  </metadata>
  <sodipodi:namedview
     inkscape:current-layer="svg20"
     inkscape:window-maximized="0"
     inkscape:window-y="0"
     inkscape:window-x="0"
     inkscape:cy="28.346482"
     inkscape:cx="28.346482"
     inkscape:zoom="5.8410537"
     showgrid="false"
     id="namedview22"
     inkscape:window-height="480"
     inkscape:window-width="1034"
     inkscape:pageshadow="2"
     inkscape:pageopacity="0"
     guidetolerance="10"
     gridtolerance="10"
     objecttolerance="10"
     borderopacity="1"
     bordercolor="#666666"
     pagecolor="#ffffff" />
  <title
     id="title2">Qt SVG Document</title>
  <desc
     id="desc4">Generated with Qt</desc>
  <defs
     id="defs6" />
  <g
     transform="translate(5.25984,5.25984)"
     id="g18"
     stroke-linejoin="bevel"
     stroke-linecap="square"
     fill-rule="evenodd"
     stroke-width="1"
     stroke="#000000"
     fill="none">
    <g
       id="g10"
       font-style="normal"
       font-weight="400"
       font-size="7.8px"
       font-family="'MS Shell Dlg 2'"
       stroke="none"
       fill-opacity="1"
       fill="#a61215">
      <path
         id="path8"
         d="M 37.2598,16 C 37.2598,27.7415 27.7415,37.2598 16,37.2598 4.25851,37.2598 -5.25984,27.7415 -5.25984,16 -5.25984,4.25851 4.25851,-5.25984 16,-5.25984 27.7415,-5.25984 37.2598,4.25851 37.2598,16"
         fill-rule="evenodd"
         vector-effect="non-scaling-stroke" />
    </g>
    <g
       id="g14"
       font-style="normal"
       font-weight="400"
       font-size="7.8px"
       font-family="'MS Shell Dlg 2'"
       transform="translate(16,11.4646)"
       stroke="none"
       fill-opacity="0.94902"
       fill="#ffffff">
      <path
         id="path12"
         d="m 8.37256,-8.15186 c 1.21777,0 1.82664,0.64388 1.82664,1.93165 V 16.8965 c 0,0.2379 -0.0455,0.4654 -0.1365,0.6824 -0.09094,0.2169 -0.21692,0.4094 -0.37789,0.5774 -0.16097,0.1679 -0.35343,0.3044 -0.57739,0.4094 -0.22396,0.105 -0.46891,0.1574 -0.73486,0.1574 H -8.46631 c -0.23795,0 -0.46541,-0.0524 -0.68237,-0.1574 -0.21696,-0.105 -0.40943,-0.2415 -0.57739,-0.4094 -0.16797,-0.168 -0.30093,-0.3605 -0.39893,-0.5774 -0.098,-0.217 -0.147,-0.4445 -0.147,-0.6824 V -6.22021 c 0,-0.5879 0.1855,-1.05681 0.55642,-1.40674 0.37093,-0.34994 0.78736,-0.52491 1.24927,-0.52491 H 8.37256 m -1.72168,0.94483 c -0.16797,0 -0.32894,0.04199 -0.48291,0.12598 -0.15397,0.08398 -0.29045,0.18896 -0.40943,0.31494 -0.11897,0.12597 -0.21346,0.26595 -0.28344,0.41992 -0.06999,0.15397 -0.10498,0.30094 -0.10498,0.44092 0,0.88183 0.42692,1.32275 1.28076,1.32275 0.89583,0 1.34375,-0.44092 1.34375,-1.32275 0,-0.13998 -0.0315,-0.28695 -0.09448,-0.44092 C 7.83716,-6.50016 7.74967,-6.64014 7.6377,-6.76611 7.52572,-6.89209 7.38574,-6.99707 7.21777,-7.08105 7.0498,-7.16504 6.86084,-7.20703 6.65088,-7.20703 m -7.033693,0.79785 c -0.391927,0 -0.58789,0.16797 -0.58789,0.50391 0,0.55989 0.195963,0.83984 0.58789,0.83984 h 1.280762 c 0.489911,0 0.734861,-0.27995 0.734861,-0.83984 0,-0.33594 -0.24495,-0.50391 -0.734861,-0.50391 h -1.280762 m -7.285647,1.6377 h 4.68213 v -2.01563 h -4.68213 v 2.01563 M -0.00488281,13.3481 C 1.21289,13.3481 2.35718,13.1172 3.42798,12.6553 4.49878,12.1934 5.42961,11.5705 6.22046,10.7866 7.01131,10.0028 7.6342,9.09294 8.08911,8.05713 8.54403,7.02132 8.77148,5.92253 8.77148,4.76074 8.77148,3.54297 8.56502,2.43717 8.1521,1.44336 7.73918,0.449544 7.0918,-0.460286 6.20996,-1.28613 4.48828,-2.96582 2.41667,-3.80566 -0.00488281,-3.80566 c -2.32356719,0 -4.33919719,0.83984 -6.04687719,2.51953 -1.66569,1.623695 -2.49853,3.63932 -2.49853,6.04687 0,1.16179 0.22046,2.26058 0.66137,3.29639 0.44092,1.03581 1.04281,1.94567 1.80567,2.72947 0.76286,0.7839 1.66569,1.4068 2.70849,1.8687 1.04281,0.4619 2.1661,0.6928 3.36987719,0.6928 m 0,-16.67085 c 1.13379281,0 2.17309281,0.19946 3.11792281,0.59838 0.94482,0.39893 1.80216,0.98332 2.57202,1.753179 1.53971,1.581705 2.30957,3.492351 2.30957,5.731931 0,2.1416 -0.76986,3.98226 -2.30957,5.52196 -1.51172,1.5117 -3.40837,2.2676 -5.68994281,2.2676 C -1.09668,12.5503 -2.12199,12.3473 -3.08081,11.9414 -4.03963,11.5355 -4.87248,10.9791 -5.57935,10.2722 -6.28621,9.56535 -6.84611,8.7395 -7.25903,7.79468 -7.67196,6.84985 -7.87842,5.83854 -7.87842,4.76074 c 0,-1.13379 0.19946,-2.17659 0.59839,-3.12842 0.39893,-0.951819 0.97632,-1.819657 1.73218,-2.603511 0.79785,-0.769859 1.65869,-1.354249 2.58252,-1.753179 0.92383,-0.39892 1.91064,-0.59838 2.96044719,-0.59838 m 0,15.18015 C 1.95475,11.8574 3.62044,11.1646 4.99219,9.77881 6.37793,8.39307 7.0708,6.72038 7.0708,4.76074 7.0708,2.8571 6.37793,1.19141 4.99219,-0.236328 4.29232,-0.964193 3.52596,-1.49959 2.69312,-1.84253 c -0.83285,-0.34294 -1.732182,-0.5144 -2.69800281,-0.5144 -0.92382819,0 -1.79166719,0.17146 -2.60351719,0.5144 -0.81185,0.34294 -1.56071,0.878337 -2.24658,1.606202 -1.38574,1.413738 -2.07861,3.079428 -2.07861,4.997068 0,1.98763 0.69287,3.66032 2.07861,5.01807 0.68587,0.71389 1.43473,1.23879 2.24658,1.57469 0.81185,0.336 1.679689,0.5039 2.60351719,0.5039 M -1.30664,0.435547 C -0.830729,0.337565 -0.361816,0.316569 0.100098,0.372559 0.562012,0.428548 1.00293,0.544027 1.42285,0.718994 1.84277,0.893962 2.2312,1.12142 2.58813,1.40137 2.94507,1.68132 3.26351,1.99626 3.54346,2.34619 3.12354,2.23421 2.70011,2.14673 2.27319,2.08374 1.84627,2.02075 1.38786,2.04525 0.897949,2.15723 -0.711751,2.38118 -2.00651,3.16504 -2.98633,4.50879 -3.46224,5.18066 -3.78418,5.87354 -3.95215,6.5874 c -0.16797,0.71387 -0.16097,1.45573 0.021,2.22559 V 9.19092 C -4.33708,8.729 -4.69401,8.26359 -5.00195,7.79468 -5.3099,7.32576 -5.53385,6.76237 -5.67383,6.10449 -5.8418,4.76074 -5.50586,3.52197 -4.66602,2.38818 -3.78418,1.29639 -2.66439,0.645508 -1.30664,0.435547"
         fill-rule="evenodd"
         vector-effect="none" />
    </g>
    <g
       id="g16"
       font-style="normal"
       font-weight="400"
       font-size="7.8px"
       font-family="'MS Shell Dlg 2'"
       stroke="none"
       fill-opacity="1"
       fill="#a61215" />
  </g>
</svg>

<?xml version="1.0" encoding="UTF-8" standalone="no"?>
<svg width="11.2889mm" height="11.2889mm"
 viewBox="0 0 32 32"
 xmlns="http://www.w3.org/2000/svg" xmlns:xlink="http://www.w3.org/1999/xlink"  version="1.2" baseProfile="tiny">
<title>Qt SVG Document</title>
<desc>Generated with Qt</desc>
<defs>
</defs>
<g fill="none" stroke="black" stroke-width="1" fill-rule="evenodd" stroke-linecap="square" stroke-linejoin="bevel" >

<g fill="#a61215" fill-opacity="1" stroke="none" transform="matrix(1,0,0,1,0,0)"
font-family="MS Shell Dlg 2" font-size="7.8" font-weight="400" font-style="normal" 
>
<path vector-effect="non-scaling-stroke" fill-rule="evenodd" d="M37.2598,16 C37.2598,27.7415 27.7415,37.2598 16,37.2598 C4.25851,37.2598 -5.25984,27.7415 -5.25984,16 C-5.25984,4.25851 4.25851,-5.25984 16,-5.25984 C27.7415,-5.25984 37.2598,4.25851 37.2598,16 "/>
</g>

<g fill="#ffffff" fill-opacity="0.94902" stroke="none" transform="matrix(1,0,0,1,16,11.4646)"
font-family="MS Shell Dlg 2" font-size="7.8" font-weight="400" font-style="normal" 
>
<path vector-effect="none" fill-rule="evenodd" d="M8.37256,-8.15186 C9.59033,-8.15186 10.1992,-7.50798 10.1992,-6.22021 L10.1992,16.8965 C10.1992,17.1344 10.1537,17.3619 10.0627,17.5789 C9.97176,17.7958 9.84578,17.9883 9.68481,18.1563 C9.52384,18.3242 9.33138,18.4607 9.10742,18.5657 C8.88346,18.6707 8.63851,18.7231 8.37256,18.7231 L-8.46631,18.7231 C-8.70426,18.7231 -8.93172,18.6707 -9.14868,18.5657 C-9.36564,18.4607 -9.55811,18.3242 -9.72607,18.1563 C-9.89404,17.9883 -10.027,17.7958 -10.125,17.5789 C-10.223,17.3619 -10.272,17.1344 -10.272,16.8965 L-10.272,-6.22021 C-10.272,-6.80811 -10.0865,-7.27702 -9.71558,-7.62695 C-9.34465,-7.97689 -8.92822,-8.15186 -8.46631,-8.15186 L8.37256,-8.15186 M6.65088,-7.20703 C6.48291,-7.20703 6.32194,-7.16504 6.16797,-7.08105 C6.014,-6.99707 5.87752,-6.89209 5.75854,-6.76611 C5.63957,-6.64014 5.54508,-6.50016 5.4751,-6.34619 C5.40511,-6.19222 5.37012,-6.04525 5.37012,-5.90527 C5.37012,-5.02344 5.79704,-4.58252 6.65088,-4.58252 C7.54671,-4.58252 7.99463,-5.02344 7.99463,-5.90527 C7.99463,-6.04525 7.96313,-6.19222 7.90015,-6.34619 C7.83716,-6.50016 7.74967,-6.64014 7.6377,-6.76611 C7.52572,-6.89209 7.38574,-6.99707 7.21777,-7.08105 C7.0498,-7.16504 6.86084,-7.20703 6.65088,-7.20703 M-0.382813,-6.40918 C-0.77474,-6.40918 -0.970703,-6.24121 -0.970703,-5.90527 C-0.970703,-5.34538 -0.77474,-5.06543 -0.382813,-5.06543 L0.897949,-5.06543 C1.38786,-5.06543 1.63281,-5.34538 1.63281,-5.90527 C1.63281,-6.24121 1.38786,-6.40918 0.897949,-6.40918 L-0.382813,-6.40918 M-7.66846,-4.77148 L-2.98633,-4.77148 L-2.98633,-6.78711 L-7.66846,-6.78711 L-7.66846,-4.77148 M-0.00488281,13.3481 C1.21289,13.3481 2.35718,13.1172 3.42798,12.6553 C4.49878,12.1934 5.42961,11.5705 6.22046,10.7866 C7.01131,10.0028 7.6342,9.09294 8.08911,8.05713 C8.54403,7.02132 8.77148,5.92253 8.77148,4.76074 C8.77148,3.54297 8.56502,2.43717 8.1521,1.44336 C7.73918,0.449544 7.0918,-0.460286 6.20996,-1.28613 C4.48828,-2.96582 2.41667,-3.80566 -0.00488281,-3.80566 C-2.32845,-3.80566 -4.34408,-2.96582 -6.05176,-1.28613 C-7.71745,0.337565 -8.55029,2.35319 -8.55029,4.76074 C-8.55029,5.92253 -8.32983,7.02132 -7.88892,8.05713 C-7.448,9.09294 -6.84611,10.0028 -6.08325,10.7866 C-5.32039,11.5705 -4.41756,12.1934 -3.37476,12.6553 C-2.33195,13.1172 -1.20866,13.3481 -0.00488281,13.3481 M-0.00488281,-3.32275 C1.12891,-3.32275 2.16821,-3.12329 3.11304,-2.72437 C4.05786,-2.32544 4.9152,-1.74105 5.68506,-0.971191 C7.22477,0.610514 7.99463,2.52116 7.99463,4.76074 C7.99463,6.90234 7.22477,8.743 5.68506,10.2827 C4.17334,11.7944 2.27669,12.5503 -0.00488281,12.5503 C-1.09668,12.5503 -2.12199,12.3473 -3.08081,11.9414 C-4.03963,11.5355 -4.87248,10.9791 -5.57935,10.2722 C-6.28621,9.56535 -6.84611,8.7395 -7.25903,7.79468 C-7.67196,6.84985 -7.87842,5.83854 -7.87842,4.76074 C-7.87842,3.62695 -7.67896,2.58415 -7.28003,1.63232 C-6.8811,0.680501 -6.30371,-0.187337 -5.54785,-0.971191 C-4.75,-1.74105 -3.88916,-2.32544 -2.96533,-2.72437 C-2.0415,-3.12329 -1.05469,-3.32275 -0.00488281,-3.32275 M-0.00488281,11.8574 C1.95475,11.8574 3.62044,11.1646 4.99219,9.77881 C6.37793,8.39307 7.0708,6.72038 7.0708,4.76074 C7.0708,2.8571 6.37793,1.19141 4.99219,-0.236328 C4.29232,-0.964193 3.52596,-1.49959 2.69312,-1.84253 C1.86027,-2.18547 0.960938,-2.35693 -0.00488281,-2.35693 C-0.928711,-2.35693 -1.79655,-2.18547 -2.6084,-1.84253 C-3.42025,-1.49959 -4.16911,-0.964193 -4.85498,-0.236328 C-6.24072,1.17741 -6.93359,2.8431 -6.93359,4.76074 C-6.93359,6.74837 -6.24072,8.42106 -4.85498,9.77881 C-4.16911,10.4927 -3.42025,11.0176 -2.6084,11.3535 C-1.79655,11.6895 -0.928711,11.8574 -0.00488281,11.8574 M-1.30664,0.435547 C-0.830729,0.337565 -0.361816,0.316569 0.100098,0.372559 C0.562012,0.428548 1.00293,0.544027 1.42285,0.718994 C1.84277,0.893962 2.2312,1.12142 2.58813,1.40137 C2.94507,1.68132 3.26351,1.99626 3.54346,2.34619 C3.12354,2.23421 2.70011,2.14673 2.27319,2.08374 C1.84627,2.02075 1.38786,2.04525 0.897949,2.15723 C-0.711751,2.38118 -2.00651,3.16504 -2.98633,4.50879 C-3.46224,5.18066 -3.78418,5.87354 -3.95215,6.5874 C-4.12012,7.30127 -4.11312,8.04313 -3.93115,8.81299 L-3.93115,9.19092 C-4.33708,8.729 -4.69401,8.26359 -5.00195,7.79468 C-5.3099,7.32576 -5.53385,6.76237 -5.67383,6.10449 C-5.8418,4.76074 -5.50586,3.52197 -4.66602,2.38818 C-3.78418,1.29639 -2.66439,0.645508 -1.30664,0.435547 "/>
</g>

<g fill="#a61215" fill-opacity="1" stroke="none" transform="matrix(1,0,0,1,0,0)"
font-family="MS Shell Dlg 2" font-size="7.8" font-weight="400" font-style="normal" 
>
</g>
</g>
</svg>
